!!!COM: Bach, Johann Sebastian
!!!CDT: 1685/03/31-1750/07/28
!!!OTL: Sinfonia 15 in B minor
!!!SCA: BWV 801
**kern	**kern	**kern
*staff3	*staff2	*staff1
*I"	*I"	*I"
*clefF4	*clefG2	*clefG2
*k[f#c#]	*k[f#c#]	*k[f#c#]
*b:	*b:	*b:
*M9/16	*M9/16	*M9/16
*MM63	*MM63	*MM63
=1	=1	=1
8.BB	16%9r	16bLL
.	.	16f#
.	.	16f#JJ
16r	.	16gLL
16BLL	.	16f#
16c#JJ	.	16f#JJ
16dLL	.	(16bLL
16c#	.	16f#
16BJJ	.	16f#JJ
=2	=2	=2
[8.A#X	16%9r	16cc#LL
.	.	16f#
.	.	16f#JJ
16A#LL]	.	16gLL
16B	.	16f#
16c#JJ	.	16f#JJ
16BLL	.	16cc#LL
16c#	.	16f#
16A#JJ	.	16f#JJ
=3	=3	=3
8.B	16%9r	32ddLLL
.	.	32b
.	.	32dd
.	.	32ff#
.	.	32bb
.	.	32ff#JJJ
8.r	.	32ddLLL
.	.	32ff#
.	.	32dd
.	.	32b
.	.	32dd
.	.	32bJJJ
8.r	.	32f#LLL
.	.	32b
.	.	32f#
.	.	32d
.	.	32f#
.	.	32dJJJ
!!LO:LB:g=original
=4	=4	=4
16BLL	16%9r	16B
16F#	.	16r
16F#JJ	.	16r
16GLL	.	16r
16F#	.	16bLL
16F#JJ	.	16cc#JJ
16BLL	.	16ddLL
16F#	.	16cc#
16F#JJ	.	16bJJ
=5	=5	=5
16c#LL	16%9r	[8.a#X
16F#	.	.
16F#JJ	.	.
16GLL	.	16a#LL]
16F#	.	16b
16F#JJ	.	16cc#JJ
16c#LL	.	16bLL
16F#	.	16cc#
16F#JJ	.	16a#JJ
*clefG2	*	*
=6	=6	=6
32dLLL	16%9r	32bLLL
32B	.	32f#
32d	.	32b
32f#	.	32dd
32b	.	32ff#
32f#JJJ	.	32ddJJJ
32dLLL	.	32bLLL
32f#	.	32dd
32d	.	32b
32B	.	32f#
32d	.	32b
32BJJJ	.	32f#JJJ
*clefF4	*	*
32F#LLL	.	32dLLL
32B	.	32f#
32F#	.	32d
32D	.	32B
32F#	.	32d
32DJJJ	.	32BJJJ
=7	=7	=7
8.BB	16bLL	[4.dd
.	16f#	.
.	16f#JJ	.
16r	16gLL	.
16BLL	16f#	.
16c#JJ	16f#JJ	.
16dLL	16bLL	8.dd_
16c#	16f#	.
16BJJ	16f#JJ	.
!!LO:LB:g=original
=8	=8	=8
8.e	[4.g#X	16ddLL]
.	.	16b
.	.	16bJJ
16r	.	16cc#LL
16ELL	.	16b
16F#JJ	.	16bJJ
16G#XLL	8.g#]	16eeLL
16F#	.	16b
16EJJ	.	16bJJ
=9	=9	=9
8.A	16aLL	[4.cc#
.	16e	.
.	16eJJ	.
16r	16f#LL	.
16AALL	16e	.
16BBJJ	16eJJ	.
16C#LL	16aLL	8.cc#_
16BB	16e	.
16AAJJ	16eJJ	.
=10	=10	=10
8.D	[4.f#	16cc#LL]
.	.	16a
.	.	16aJJ
16r	.	16bLL
16DDLL	.	16a
16EEJJ	.	16aJJ
16FF#LL	8.f#]	16ddLL
16EE	.	16a
16DDJJ	.	16aJJ
=11	=11	=11
8.GG	16g	32bLLL
.	.	32dd
.	16r	32b
.	.	32g
.	16r	32b
.	.	32gJJJ
32GLLL	8.r	8.e
32B	.	.
32G	.	.
32E	.	.
32G	.	.
32EJJJ	.	.
32C#LLL	8.r	32eeLLL
32E	.	32gg
32C#	.	32ee
32AA	.	32cc#
32C#	.	32ee
32AAJJJ	.	32cc#JJJ
!!LO:LB:g=original
=12	=12	=12
8.FF#	16%9r	32aLLL
.	.	32cc#
.	.	32a
.	.	32f#
.	.	32a
.	.	32f#JJJ
32F#LLL	.	8.d
32A	.	.
32F#	.	.
32D	.	.
32F#	.	.
32DJJJ	.	.
32BBLLL	.	32ddLLL
32D	.	32ff#
32BB	.	32dd
32GG	.	32b
32BB	.	32dd
32GGJJJ	.	32bJJJ
=13	=13	=13
8.EE	16%9r	32gLLL
.	.	32b
.	.	32g
.	.	32e
.	.	32g
.	.	32eJJJ
32ELLL	.	32c#LLL
32G	.	32e
32E	.	32c#
32C#	.	32A
32E	.	32c#
32C#JJJ	.	32AJJJ
32AALLL	.	16aLL
32C#	.	.
32AA	.	16f#
32FF#	.	.
32AA	.	16gJJ
32FF#JJJ	.	.
=14	=14	=14
8.DD	16dLL	8.f#
.	16A	.
.	16AJJ	.
16r	16BLL	8.r
16DDLL	16A	.
16EEJJ	16AJJ	.
16FF#LL	16dLL	8.r
16EE	16A	.
16DDJJ	16AJJ	.
!!LO:LB:g=original
=15	=15	=15
8.CC#	16eLL	16%9r
.	16A	.
.	16AJJ	.
16r	16BLL	.
16AALL	16A	.
16BBJJ	16AJJ	.
16C#LL	16eLL	.
16BB	16A	.
16AAJJ	16AJJ	.
=16	=16	=16
[8.D	32f#LLL	16%9r
.	32d	.
.	32f#	.
.	32a	.
.	32dd	.
.	32bJJJ	.
16DLL]	32g#XLLL	.
.	32b	.
16E	32g#	.
.	32e	.
16F#JJ	32g#	.
.	32eJJJ	.
16ELL	32BLLL	.
.	32e	.
16F#	32B	.
.	32G#X	.
16DJJ	32B	.
.	32G#JJJ	.
=17	=17	=17
8.C#	8.E	16aLL
.	.	16e
.	.	16eJJ
8.r	16r	16f#LL
.	16ALL	16e
.	16BJJ	16eJJ
8.r	16c#LL	16aLL
.	16B	16e
.	16AJJ	16eJJ
=18	=18	=18
8.E	[8.G#X	16bLL
.	.	16e
.	.	16eJJ
8.r	16G#LL]	16f#LL
.	16A	16e
.	16BJJ	16eJJ
8.r	16ALL	16bLL
.	16B	16e
.	16G#JJ	16eJJ
!!LO:LB:g=original
=19	=19	=19
8.AA	[8.A	32cc#LLL
.	.	32a
.	.	32cc#
.	.	32ee
.	.	32aa
.	.	32eeJJJ
4.F#	16ALL]	32dd#XLLL
.	.	32ff#
.	16B	32dd#
.	.	32b
.	16cnJJ	32dd#
.	.	32bJJJ
.	16BLL	32f#LLL
.	.	32b
.	16c	32f#
.	.	32d#X
.	16AJJ	32f#
.	.	32d#JJJ
=20	=20	=20
8.G	16eLL	8.e
.	16B	.
.	16BJJ	.
16r	16cnLL	8.r
16ELL	16B	.
16F#JJ	16BJJ	.
16GLL	16eLL	[8.g
16F#	16B	.
16EJJ	16BJJ	.
=21	=21	=21
8.A	[4.c#X	16gLL]
.	.	16e
.	.	16eJJ
16r	.	16f#LL
16AALL	.	16e
16BBJJ	.	16eJJ
16C#LL	8.c#_	16aLL
16BB	.	16e
16AAJJ	.	16eJJ
=22	=22	=22
8.D	16c#LL]	[4.f#
.	16A	.
.	16AJJ	.
16rA	16BLL	.
16DLL	16A	.
16EJJ	16AJJ	.
16F#LL	16dLL	8.f#_
16E	16A	.
16DJJ	16AJJ	.
!!LO:LB:g=original
=23	=23	=23
8.G	[4.B	16f#LL]
.	.	16d
.	.	16dJJ
16r	.	16eLL
16GLL	.	16d
16F#JJ	.	16dJJ
16ELL	8.B_	16gLL
16F#	.	16d
16GJJ	.	16dJJ
=24	=24	=24
8.C#	16BLL]	[4.e
.	16G#X	.
.	16G#JJ	.
16r	16ALL	.
16C#LL	16G#	.
16BBJJ	16G#JJ	.
16AA#XLL	16c#LL	8.e_
16BB	16G#	.
16C#JJ	16G#JJ	.
=25	=25	=25
8.FF#	[4.A#X	16eLL]
.	.	16c#
.	.	16c#JJ
16r	.	16dLL
16F#LL	.	16c#
16EJJ	.	16c#JJ
16DLL	8.A#]	16f#LL
16E	.	16c#
16F#JJ	.	16c#JJ
=26	=26	=26
16BB	16B	32dLLL
!	!	!
.	.	32B
16r	16r	32d
.	.	32f#
16r	16r	32d
.	.	32f#JJJ
32DLLL	8.r	32bLLL
32BB	.	32f#
32D	.	32b
32F#	.	32dd
32D	.	32b
32F#JJJ	.	32ddJJJ
32BLLL	8.r	8.gg
32G	.	.
32B	.	.
32e	.	.
32B	.	.
32eJJJ	.	.
!!LO:LB:g=original
=27	=27	=27
8.a	16%9r	32c#LLL
.	.	32A
.	.	32c#
.	.	32e
.	.	32c#
.	.	32eJJJ
32C#LLL	.	32aLLL
32AA	.	32e
32C#	.	32a
32E	.	32cc#
32C#	.	32a
32EJJJ	.	32cc#JJJ
32ALLL	.	8.ff#
32F#	.	.
32A	.	.
32d	.	.
32A	.	.
32dJJJ	.	.
*clefG2	*	*
=28	=28	=28
32gLLL	16%9r	32BLLL
32b	.	32G
32g	.	32B
32d	.	32d
32g	.	32B
32dJJJ	.	32dJJJ
*clefF4	*	*
32BLLL	.	32gLLL
32d	.	32d
32B	.	32g
32G	.	32b
32B	.	32g
32GJJJ	.	32bJJJ
32ELLL	.	[8.ee
32G	.	.
32E	.	.
32C#	.	.
32E	.	.
32C#JJJ	.	.
=29	=29	=29
[8.AA#X	16%9r	16eeLL]
.	.	16f#
.	.	16f#JJ
16AA#LL]	.	16gLL
16BB	.	16f#
16C#JJ	.	16f#JJ
16FF#LL	.	16eeLL
16BB	.	16f#
16AA#JJ	.	16f#JJ
!!LO:LB:g=original
=30	=30	=30
8.BB	16f#LL	[4.dd
.	16B	.
.	16BJJ	.
8.r	16dLL	.
.	16B	.
.	16BJJ	.
8.BB	16f#LL	8.dd_
.	16B	.
.	16BJJ	.
=31	=31	=31
[4.E	[4.g	16ddLL]
.	.	16b
.	.	16bJJ
.	.	16ccnLL
.	.	16b
.	.	16bJJ
8.E_	8.g]	16ggLL
.	.	16b
.	.	16bJJ
=32	=32	=32
8.E_	8.f#	8.a#X
4.E;]	4.a#X;	[4.ff#;
=33	=33	=33
8D	16%9r	32ff#LLL]
.	.	32b
.	.	32dd
.	.	32ff#
16r	.	32bb
.	.	32ff#JJJ
8.r	.	32ddLLL
.	.	32ff#
.	.	32dd
.	.	32b
.	.	32dd
.	.	32bJJJ
8.r	.	32f#LLL
.	.	32b
.	.	32f#
.	.	32d
.	.	32f#
.	.	32dJJJ
!!LO:LB:g=original
=34	=34	=34
32BLLL	[4.b	[4.dd
32G	.	.
32B	.	.
32d	.	.
32g	.	.
32dJJJ	.	.
32BLLL	.	.
32d	.	.
32B	.	.
32G	.	.
32B	.	.
32GJJJ	.	.
32DLLL	8.b_	8.dd_
32G	.	.
32D	.	.
32BB	.	.
32D	.	.
32BBJJJ	.	.
=35	=35	=35
8.EE#X	4.b_	16ddLL]
.	.	16cc#
.	.	16cc#JJ
8.r	.	16gg#XLL
.	.	16cc#
.	.	16cc#JJ
8.r	8.b]	16ddLL
.	.	16cc#
.	.	16cc#JJ
=36	=36	=36
8.FF#	8.a#X	16eeLL
.	.	16cc#
.	.	16cc#JJ
16r	16r	16aa#XLL
16ELL	16a#LL	16cc#
16F#JJ	16bJJ	16ddJJ
16GLL	16cc#LL	16eeLL
16F#	16b	16dd
16EJJ	16a#JJ	16cc#JJ
=37	=37	=37
8DL	4.b	16ff#LL
.	.	16gg
16EJk	.	16eeJJ
8F#L	.	(8.dd
16EJk	.	.
8F#L	8.a#X	8cc#tL)
16FF#Jk	.	16bJk
=38	=38	=38
2.BB;	2.b;	2.b;
==	==	==
*-	*-	*-
!!!RDF**kern: N = linked
!!!system-decoration: [(s1,s2,s3)]
!!!URL-pdf: https://vmirror.imslp.org/files/imglnks/usimg/5/55/IMSLP396136-PMLP03268-Bach,_Johann_Sebastian-Werke_Breitkopf_Band_3_02_BWV_787-801.pdf#page=23 Bach-Gesellschaft Ausgabe, Band 3 (pp.19-42) Leipzig: Breitkopf und Härtel, 1853. Plate B.W. III.
!!!URL-youtube: https://www.youtube.com/watch?v=Lao8x1bHWEg&t=1731s Malinowski
!!!SMS: Bach-Gesellschaft Ausgabe, Band 3 (pp.19-42) Leipzig: Breitkopf und Härtel, 1853. Plate B.W. III.
!!!ONB: Open-score format
!!!ENC: Craig Stuart Sapp
!!!END: 2024/03/29
!!!EED: Craig Stuart Sapp
!!!EEV: 2024/03/29
!!!title: @{OTL} (@{SCA})
!!!voices: 3
!!!AGN: polyphony
!!!AST: baroque
!!!AMT: simple triple
!!!AIN: cemb; clavi
